X: 12660
T: Farrel O'Gara's
R: reel
M: 4/4
K: Dmajor
|:B|ADD2 DEFA|BFAF E2Ac|d2cA (3Bcd AF|G2FG ED(3Bcd|
ADD2 DEFA|BFAF E2Ac|d2cA (3Bcd AF|GFEG FDD:|
e|fdd2 fdge|f2gf edBc|dBBA Bcd2|fdgf e2de|
fdd2 fdge|f2gf edBc|dBBA Bcd2|GFEG FDDe|
fdd2 fdge|f2gf edBc|dBBA Bcd2|fdgf e2de|
fgaf e2dB|defd B2dB|ADD2 DEFA|BFAF D3||

